X:2
T:The Curly-headed Ploughboy
C:Trad
M:4/4
L:1/8
Z:abc2nwc
K:G
|:d3c|B2d2G2B2|E4D2G2|FG AB c2B2|B4A2dc|
B2d2G2B2|E4D2G2|FG AB c2A2|G4:|
K:D
|:z2d2|c2c2cA Bc|d2d2d2d2|c2c2cA Bc|de fe d2d2|
c2c2cA Bc|d2A2B2G2|F2A2G2E2|D4:|
